!!!!SEGMENT: pl-kk--kk-i-389--010-001_anonim--missa-no-10-rorate.krn
!!!cenid: 17xx:2522
!!!COM: Anonim
!!!COM-rismID: pe30004985
!!!CDT:
!!!CNT:
!!!OPR: [Missa] No. 10.
!!!OTL: Rorate
!!!OMV: 001
!!!PDT:
!!!AGN: Sacred; Mass
!!!YEC: Copyright 2022 Narodowy Instytut Fryderyka Chopina (https://polishscores.org)
!!!YEM: License CC-BY-4.0 (https://creativecommons.org/licenses/by/4.0)
!!!SMS-siglum: PL-Kk
!!!SMS-shelfmark: Kk.I.389
!!!SMS-variant:
!!!SMS-altvar:
!!!SMS-shelfwork: 010-001 M
!!!NIFC-rismSourceID: 1001146182
!!!NIFC-rismChildID: 1001147254
!!!NIFC-islandoraID: pl-kk:6976
!!!URL-pdf-islandora: https://repozytorium.nifc.pl/islandora/object/pl-kk%3A6976/datastream/PDF/view
!!!URL-scan: https://polish.musicsources.pl/pl/lokalizacje/galeria/rekopisy/5999/1 @EN{Scan on Polish Music Sources Website} @PL{Skany w portalu Dziedzictwo Muzyki Polskiej w otwartym dostępie}
!!!IIIF:
!!!ONB-nifc: UWAGA: S – skan 17-18, A – 36-37, T – 55-56, B – 74-75. Części Mszy: Rorate, Kyrie, Gloria, Graduale, Sanctus, Benedictus, Agnus, Dona.
!!!AIN: 1 alto 1 bass 1 soprn 1 tenor
!!!key:
**kern	**text	**kern	**text	**kern	**text	**kern	**text
*part4	*part4	*part3	*part3	*part2	*part2	*part1	*part1
*staff4	*staff4	*staff3	*staff3	*staff2	*staff2	*staff1	*staff1
*I"Basso.	*	*I"Tenore.	*	*I"Alto.	*	*I"Soprano.	*
*I'B.	*	*I'T.	*	*I'A.	*	*I'S.	*
*ICvox	*	*ICvox	*	*ICvox	*	*ICvox	*
*Ibass	*	*Itenor	*	*Ialto	*	*Isoprn	*
*clefF4	*	*clefC4	*	*clefC3	*	*clefC1	*
*k[b-]	*	*k[b-]	*	*k[b-]	*	*k[b-]	*
*F:	*	*F:	*	*F:	*	*F:	*
*M2/2	*	*M2/2	*	*M2/2	*	*M2/2	*
*met(C.)	*	*met(C.)	*	*met(C.)	*	*met(C.)	*
=1	=1	=1	=1	=1	=1	=1	=1
*	*	*	*	*	*	*all\right:global	*
*2\right	*	*2\right	*	*2\right	*	*2\right	*
2F\	Ro-	2c\	Ro-	2f\	Ro-	2cc\	Ro-
2B-\	-ra-	2B-\	-ra-	2f\	-ra-	2dd\	-ra-
=2	=2	=2	=2	=2	=2	=2	=2
2A\	-te	2c\	-te,	2f\	-te	2cc\	-te
4r	.	4r	.	4r	.	4r	.
4B-\	ro-	4B-\	Ro-	4f\	Ro-	8dd\L	ro-
.	.	.	.	.	.	8cc\J	.
=3	=3	=3	=3	=3	=3	=3	=3
4G\	-ra-	4B-\	-ra-	4e\	-ra-	4b-\	-ra-
4F\	-te	4c\	-te	4f\	-te	4a\	-te
4c\	ce-	2c\	ce-	4f\	ce-	2g\	ce-
4C/	.	.	.	4e\	.	.	.
=4	=4	=4	=4	=4	=4	=4	=4
4F\	-li	4c\	-li	4f\	-li	4a\	-li,
4F\	Ro-	4A\	Ro-	4f\	Ro-	4cc\	Ro-
4A\	-ra-	4c\	-ra-	4f\	-ra-	4cc\	-ra-
4F\	-te	4A\	-te	4f\	-te	4cc\	-te
!LO:LB:g=original	!	!	!	!	!	!	!
=5	=5	=5	=5	=5	=5	=5	=5
4E\	ce-	2B-\	ce-	4g\	ce-	2cc\	ce-
4D\	.	.	.	4f\	.	.	.
4E\	-li	4B-\	-li,	4g\	-li,	4cc\	-li,
4C/	Ro-	4B-\	Ro-	4e\	Ro-	4cc\	Ro-
!	!	!LO:LB:g=original	!	!LO:LB:g=original	!	!LO:LB:g=original	!
=6	=6	=6	=6	=6	=6	=6	=6
2F\	-ra-	2A\	-ra-	1a	-ra-	2cc\	-ra-
2B-\	.	[2d\	.	.	.	2f/	.
=7	=7	=7	=7	=7	=7	=7	=7
2E\	.	2d\]	.	1g	.	2b-\	.
2A\	.	[2c\	.	.	.	2e/	.
=8	=8	=8	=8	=8	=8	=8	=8
2D\	.	2c\]	.	1f	.	2a\	.
2G\	.	[2B-\	.	.	.	2d/	.
=9	=9	=9	=9	=9	=9	=9	=9
2C/	.	2B-\]	.	2e\	.	2g\	.
2F\	-te	2A\	-te,	2f\	-te,	2c/	-te,
=10	=10	=10	=10	=10	=10	=10	=10
4D/	ce-	4Bn\	ce-	4f\	ce-	4f/	ce-
4C/	-li	4c\	-li	4e\	-li	4g\	-li
4G\	de-	4c\	de-	4d\	de-	4g\	de-
4GG/	-su-	4B\	-su-	4d\	-su-	4g\	-su-
=11	=11	=11	=11	=11	=11	=11	=11
4C/	-per,	4c\	-per,	4e\	-per,	4g\	-per,
4r	.	4c\	Ro-	4e\	Ro-	4g\	Ro-
2r	.	4c\	-ra-	4e\	-ra-	4g\	-ra-
.	.	4c\	-te	4e\	-te	4g\	-te
=12	=12	=12	=12	=12	=12	=12	=12
!LO:TX:a:t=5.	!	!	!	!	!	!	!
00r	.	2c\	ce-	2f\	ce-	2a\	ce-
.	.	2B-X\	.	[2g\	.	2dd\	.
=13-	=13	=13	=13	=13	=13	=13	=13
.	.	2A\	.	2g\]	.	1cc	.
.	.	2d\	.	[2f\	.	.	.
=14-	=14	=14	=14	=14	=14	=14	=14
.	.	2G/	.	2f\]	.	1b-X	.
.	.	2c\	.	2e\	.	.	.
!	!	!LO:LB:g=original	!	!	!	!LO:LB:g=original	!
=15-	=15	=15	=15	=15	=15	=15	=15
.	.	2F/	.	2e\	.	2a\	.
.	.	2B-\	-li,	2d\	-li	2f/	-li
!	!	!	!	!LO:LB:g=original	!	!	!
=16-	=16	=16	=16	=16	=16	=16	=16
1r	.	4G/	ce-	4e\	ce-	4b-\	ce-
.	.	4F/	-li	4f\	-li	4a\	-li
.	.	4c\	de-	4f\	de-	4.g/	de-
.	.	4c\	-su-	4e\	-su-	.	.
.	.	.	.	.	.	8g/	-su-
!LO:LB:g=original	!	!	!	!	!	!	!
=17	=17	=17	=17	=17	=17	=17	=17
4r	.	4F/	-per	4f\	-per	4a\	-per,
4F\	et	4A/	et	4f\	et	4cc\	et
4F\	nu-	4A/	nu-	4f\	nu-	4cc\	nu-
4G\	-bes	4G/	-bes	4e\	-bes	4cc\	-bes
=18	=18	=18	=18	=18	=18	=18	=18
2A\	plu-	2F/	plu-	2f\	plu-	2a\	plu-
2B-\	-ant	2B-\	-ant	2f\	-ant	2dd\	-ant,
=19	=19	=19	=19	=19	=19	=19	=19
2E\	nu-	2c\	nu-	2g\	nu-	2b-\	nu-
2F\	-bes	2c\	-bes	2f\	-bes	2a\	-bes
=20	=20	=20	=20	=20	=20	=20	=20
2C#X/	plu-	2A\	plu-	2e\	plu-	2g\	plu-
2D\	-ant	2A\	-ant	2f\	-ant	2dd\	-ant,
=21	=21	=21	=21	=21	=21	=21	=21
4A\	plu-	4A\	plu-	4f\	plu-	4cc#X\	plu-
4B-\	-ant	4F/	-ant	4f\	-ant	4dd\	-ant
4G\	ju-	4B-\	ju-	2e\	ju-	(4dd\	ju-
4A\	.	4A\	.	.	.	4cc#\)	.
=22	=22	=22	=22	=22	=22	=22	=22
2D\	-stum	2A\	-stum	2f\	-stum	2dd\	-stum
!	!	!LO:LB:g=original	!	!	!	!LO:LB:g=original	!
4A\	nu-	4A\	nu-	4e\	nu-	4ccn\	nu-
4G\	-bes	4B-\	-bes	4e\	-bes	4b-X\	-bes
=23	=23	=23	=23	=23	=23	=23	=23
2F\	plu-	2c\	plu-	2f\	plu-	2a\	plu-
2B-\	-ant	2B-\	-ant	2f\	-ant	2dd\	-ant
!LO:LB:g=original	!	!	!	!LO:LB:g=original	!	!	!
=24	=24	=24	=24	=24	=24	=24	=24
2G\	nu-	2B-\	nu-	2e\	nu-	2b-\	nu-
2F\	-bes	2A\	-bes	2f\	-bes	2cc\	-bes
=25	=25	=25	=25	=25	=25	=25	=25
4E\	plu-	4G/	plu-	4g\	plu-	4cc\	plu-
4F\	-ant	4A/	-ant	4f\	-ant	4cc\	-ant
4c\	ju-	2G/	ju-	4f\	ju-	2cc\	ju-
4C/	.	.	.	4e\	.	.	.
=26	=26	=26	=26	=26	=26	=26	=26
2F\	-stum,	2A\	-stum,	2f\	-stum,	2cc\	-stum,
4d\	et	2d\	et	2f\	et	2a\	et
4c\	.	.	.	.	.	.	.
=27	=27	=27	=27	=27	=27	=27	=27
4B-\	ger-	2d\	ger-	1g	ger-	2b-\	ger-
4G\	.	.	.	.	.	.	.
4c\	.	2e\	.	.	.	4cc\	-mi-
4B-\	.	.	.	.	.	4cc\	-net
=28	=28	=28	=28	=28	=28	=28	=28
4A\	.	2c\	.	1f	.	2a\	Sal-
4F\	.	.	.	.	.	.	.
4B-\	.	2d\	.	.	.	2b-\	.
4A\	.	.	.	.	.	.	.
=29	=29	=29	=29	=29	=29	=29	=29
4G\	.	2B-\	.	1e	.	2g\	.
4E\	.	.	.	.	.	.	.
4A\	-mi-	2c\	.	.	.	2a\	-va-
4G\	.	.	.	.	.	.	.
=30	=30	=30	=30	=30	=30	=30	=30
2F\	-net	2d\	.	2f\	.	2a\	-to-
!LO:LB:g=original	!	!	!	!	!	!	!
2E\	et	2c#X\	-mi-	2g\	-mi-	2g\	.
!	!	!LO:LB:g=original	!	!	!	!LO:LB:g=original	!
=31	=31	=31	=31	=31	=31	=31	=31
2D\	ger-	2d\	-net	2f\	-net	2a\	-rem
4F\	.	4d\	sal-	4f\	et	4a\	sal-
4G\	-mi-	4d\	-va-	4e\	ger-	4b-\	.
=32	=32	=32	=32	=32	=32	=32	=32
2A\	-net	2cn\	-to-	1f	.	2cc\	.
4B-\	sal-	2B-\	.	.	.	2dd\	-va-
4B-\	-va-	.	.	.	.	.	.
=33	=33	=33	=33	=33	=33	=33	=33
2G\	-to-	2B-\	.	1e	.	2dd\	-to-
2A\	.	2A\	.	.	.	2cc#X\	.
=34	=34	=34	=34	=34	=34	=34	=34
2D\	-rem,	2A\	-rem,	2f\	.	2dd\	-rem
4F\	sal-	4A\	sal-	4f\	.	4ccn\	et
4G\	.	4B-\	-va-	4e\	-mi-	4b-X\	.
!	!	!	!	!LO:LB:g=original	!	!	!
=35	=35	=35	=35	=35	=35	=35	=35
2A\	.	2A/	-to-	1f	-net,	2cc\	ger-
2B-\	-va-	2G/	.	.	.	2dd\	.
=36	=36	=36	=36	=36	=36	=36	=36
2c\	-to-	2G/	.	2e\	sal-	1cc	.
2F\	-rem	2A\	-rem	2f\	.	.	.
=37	=37	=37	=37	=37	=37	=37	=37
4d\	sal-	4A/	sal-	2.f\	.	2dd\	.
4B-\	-va-	4B-/	-va-	.	.	.	.
4c\	-to-	2G/	-to-	.	.	2cc\	-mi-
4C/	.	.	.	4e\	-ve-	.	.
!LO:LB:g=original	!	!	!	!	!	!	!
=38	=38	=38	=38	=38	=38	=38	=38
2F\	-rem	2A/	-rem	2f\	-to-	2cc\	-net,
4BBn/	sal-	4G/	sal-	4f\	-rem,	4dd\	sal-
4BB/	-va-	4G/	-va-	4f\	et	4dd\	-va-
!	!	!LO:LB:g=original	!	!	!	!	!
=39	=39	=39	=39	=39	=39	=39	=39
1BB-	-to-	1G	-to-	1f	ger-	1dd	-to-
!	!	!	!	!	!	!LO:LB:g=original	!
=40	=40	=40	=40	=40	=40	=40	=40
1C	.	1G	.	1e	.	2dd\	-rem
.	.	.	.	.	.	4cc\	sal-
.	.	.	.	.	.	4b-X\	.
=41	=41	=41	=41	=41	=41	=41	=41
1D	.	2G/	.	2.d\	.	1a	.
.	.	2F/	-rem	.	.	.	.
.	.	.	.	4e\	-mi-	.	.
=42	=42	=42	=42	=42	=42	=42	=42
1BBn	-rem	1d	sal-	1f	-net	1g	-va-
=43	=43	=43	=43	=43	=43	=43	=43
1C	salva-	1c	-va-	2e\	sal-	2g\	-to-
.	.	.	.	2f\	-va-	2a\	.
=44	=44	=44	=44	=44	=44	=44	=44
1C	-to-	1c	-to-	2f\	-to-	1g	.
.	.	.	.	2e\	.	.	.
=45	=45	=45	=45	=45	=45	=45	=45
0FF	-rem.	0c	-rem.	0f	-rem.	0a	-rem.
==	==	==	==	==	==	==	==
*-	*-	*-	*-	*-	*-	*-	*-
!!!system-decoration: [(s1,s2,s3,s4)]
!!!ENC: Berenika Jozajtis
!!!END: 2023-11-13
!!!ENC: Leszek Kubiak
!!!END: 2024-01-22
